svg/fluentui-system-icons/ic_fluent_flip_horizontal_16_regular.svg

<svg width="16" height="16" viewBox="0 0 16 16" fill="none" xmlns="http://www.w3.org/2000/svg">
<path d="M14.9253 12.7629C14.8342 12.9103 14.6733 13 14.5 13H9.5C9.22386 13 9 12.7762 9 12.5V2.50005C9 2.26816 9.15944 2.0667 9.38512 2.01342C9.61081 1.96015 9.84351 2.06903 9.94721 2.27644L14.9472 12.2764C15.0247 12.4314 15.0164 12.6155 14.9253 12.7629ZM10 4.61808V12H13.691L10 4.61808ZM1.5 13C1.32671 13 1.16578 12.9103 1.07468 12.7629C0.983572 12.6155 0.975289 12.4314 1.05279 12.2764L6.05279 2.27644C6.15649 2.06903 6.38919 1.96015 6.61488 2.01342C6.84056 2.0667 7 2.26816 7 2.50005L7 12.5C7 12.7762 6.77614 13 6.5 13H1.5Z" fill="#212121"/>
</svg>

<svg xmlns="http://www.w3.org/2000/svg" width="16" height="16"><path d="M14.925 12.763A.5.5 0 0 1 14.5 13h-5a.5.5 0 0 1-.5-.5v-10a.5.5 0 0 1 .947-.224l5 10a.5.5 0 0 1-.022.487ZM10 4.618V12h3.691L10 4.618ZM1.5 13a.5.5 0 0 1-.447-.724l5-10A.5.5 0 0 1 7 2.5v10a.5.5 0 0 1-.5.5h-5Z"/></svg>
